src/assets/logo.light.svg

<svg fill="none" height="80" viewBox="0 0 169 80" width="169" xmlns="http://www.w3.org/2000/svg" xmlns:xlink="http://www.w3.org/1999/xlink"><filter id="a" color-interpolation-filters="sRGB" filterUnits="userSpaceOnUse" height="80" width="168.024" x="0" y="0"><feFlood flood-opacity="0" result="BackgroundImageFix"/><feGaussianBlur in="BackgroundImageFix" stdDeviation="8"/><feComposite in2="SourceAlpha" operator="in" result="effect1_backgroundBlur_24206_156837"/><feColorMatrix in="SourceAlpha" result="hardAlpha" type="matrix" values="0 0 0 0 0 0 0 0 0 0 0 0 0 0 0 0 0 0 127 0"/><feOffset/><feGaussianBlur stdDeviation="10"/><feComposite in2="hardAlpha" operator="out"/><feColorMatrix type="matrix" values="0 0 0 0 0 0 0 0 0 0 0 0 0 0 0 0 0 0 0.05 0"/><feBlend in2="effect1_backgroundBlur_24206_156837" mode="normal" result="effect2_dropShadow_24206_156837"/><feBlend in="SourceGraphic" in2="effect2_dropShadow_24206_156837" mode="normal" result="shape"/></filter><g filter="url(#a)"><g fill="#181818"><path d="m57.3232 37.127h13.578v5.1728h-7.0605v2.4503h4.6165v3.5393h-4.6165v4.6283h-6.5175z"/><path d="m72.8021 37.127h5.4312v15.7907h-5.4312z"/><path d="m102.945 43.3888v-2.9948h4.074v-3.267h-9.7766v15.7907h9.7766v-3.267h-4.074v-2.9948h2.716v-3.2671z"/><path d="m108.919 37.127h13.578v4.6283h-6.789v3.2671h4.345v3.267h-4.345v4.6283h-6.789z"/><path d="m130.101 37.127h-5.703v15.7907h8.69v-3.267h-2.987z"/><path clip-rule="evenodd" d="m80.1342 37.127h12.4917v1.6335h2.7156v6.5341h-2.7156v2.4503h2.7156v5.1728h-6.7889v-4.6283h-2.9872v4.6283h-5.4312zm9.7761 3.8115v3.2671h-4.3449v-3.2671z" fill-rule="evenodd"/><path d="m138.791 37.127h-6.246v6.2618h2.173v1.6336h1.357v1.6335h1.358v6.2618h5.703v-6.2618h1.358v-1.6335h1.358v-1.6336h2.172v-6.2618h-6.246v6.2618h-2.987z"/></g><path d="m22.5362 20h2.5363v2.5h-2.5363z" fill="#e64cff"/><path d="m27.6087 25h-2.5362v2.5h-2.5363v10h-2.5362v12.5h2.5362v5h2.5363v2.5h2.5362v2.5h15.2174v-2.5h2.5362v-2.5h2.5363v-2.5h2.5362v-12.5h-2.5362v-5h-2.5363v-5h-2.5362v-2.5h2.5362v-2.5h-2.5362v2.5h-2.5362v-2.5h-2.5363v-2.5h-5.0724v-2.5h-2.5363v5h2.5363v2.5h-2.5363v5h-2.5362v-2.5h-2.5362v-2.5h2.5362z" fill="#e64cff"/><path d="m35.2173 27.5h2.5362v2.5h2.5363v2.5h2.5362v5h2.5362v5h2.5362v10h-2.5362v2.5h-2.5362v2.5h-12.6812v-2.5h-5.0724v-5h-2.5363v-10h2.5363v-5h7.6087v-2.5h2.5362z" fill="#222ebb"/><path d="m27.6086 30h-2.5362v2.5h2.5362z" fill="#222ebb"/><path d="m35.2172 32.5h2.5362v2.5h-2.5362z" fill="#6548f7"/><path d="m42.8259 45v-5h-2.5362v-5h-2.5363v2.5h-5.0725v2.5h-2.5362v-2.5h-2.5362v5h-2.5362v12.5h5.0724v2.5h12.6812v-5h2.5362v-7.5z" fill="#6548f7"/><path d="m37.7533 37.5h-2.5362v2.5h2.5362z" fill="#fff"/><path clip-rule="evenodd" d="m30.1446 42.5v2.5h-2.5362v10h2.5362v2.5h10.145v-2.5h2.5362v-10h-2.5362v-2.5zm0 5h2.5362v5h-2.5362zm10.145 5v-5h-2.5363v5z" fill="#fff" fill-rule="evenodd"/></g></svg>

<svg width="169" height="80" viewBox="0 0 169 80" fill="none" xmlns="http://www.w3.org/2000/svg">
    <g filter="url(#filter0_bd_24206_156837)">
        <path d="M57.3232 37.127H70.9012V42.2998H63.8407V44.7501H68.4572V48.2894H63.8407V52.9177H57.3232V37.127Z"
            fill="#181818" />
        <path d="M72.8021 37.127H78.2333V52.9177H72.8021V37.127Z" fill="#181818" />
        <path
            d="M102.945 43.3888V40.394H107.019V37.127H97.2424V52.9177H107.019V49.6507H102.945V46.6559H105.661V43.3888H102.945Z"
            fill="#181818" />
        <path d="M108.919 37.127H122.497V41.7553H115.708V45.0224H120.053V48.2894H115.708V52.9177H108.919V37.127Z"
            fill="#181818" />
        <path d="M130.101 37.127H124.398V52.9177H133.088V49.6507H130.101V37.127Z" fill="#181818" />
        <path fill-rule="evenodd" clip-rule="evenodd"
            d="M80.1342 37.127H92.6259V38.7605H95.3415V45.2946H92.6259V47.7449H95.3415V52.9177H88.5526V48.2894H85.5654V52.9177H80.1342V37.127ZM89.9103 40.9385V44.2056H85.5654V40.9385H89.9103Z"
            fill="#181818" />
        <path
            d="M138.791 37.127H132.545V43.3888H134.718V45.0224H136.075V46.6559H137.433V52.9177H143.136V46.6559H144.494V45.0224H145.852V43.3888H148.024V37.127H141.778V43.3888H138.791V37.127Z"
            fill="#181818" />
        <path d="M22.5362 20H25.0725V22.5H22.5362V20Z" fill="#E64CFF" />
        <path
            d="M27.6087 25H25.0725V27.5L22.5362 27.5V37.5H20V50H22.5362V55H25.0725V57.5H27.6087V60H42.8261V57.5H45.3623L45.3623 55H47.8986V52.5H50.4348V40H47.8986V35H45.3623L45.3623 30H42.8261V27.5L45.3623 27.5V25H42.8261V27.5H40.2899V25H37.7536V22.5H32.6812V20H30.1449V25H32.6812V27.5H30.1449V32.5L27.6087 32.5V30H25.0725V27.5H27.6087V25Z"
            fill="#E64CFF" />
        <path
            d="M35.2173 27.5H37.7535V30H40.2898V32.5H42.826V37.5L45.3622 37.5V42.5H47.8984V52.5H45.3622L45.3622 55H42.826V57.5H30.1448V55H25.0724V50H22.5361V40H25.0724V35H32.6811V32.5L35.2173 32.5V27.5Z"
            fill="#222EBB" />
        <path d="M27.6086 30H25.0724V32.5H27.6086V30Z" fill="#222EBB" />
        <path d="M35.2172 32.5H37.7534V35H35.2172V32.5Z" fill="#6548F7" />
        <path
            d="M42.8259 45V40H40.2897V35L37.7534 35V37.5L32.6809 37.5V40H30.1447L30.1447 37.5H27.6085V42.5H25.0723V55H30.1447V57.5H42.8259V52.5H45.3621V45H42.8259Z"
            fill="#6548F7" />
        <path d="M37.7533 37.5H35.2171V40H37.7533V37.5Z" fill="white" />
        <path fill-rule="evenodd" clip-rule="evenodd"
            d="M30.1446 42.5V45H27.6084V55H30.1446V57.5H40.2896V55H42.8258V45H40.2896V42.5H30.1446ZM30.1446 47.5H32.6808V52.5H30.1446V47.5ZM40.2896 52.5V47.5L37.7533 47.5V52.5H40.2896Z"
            fill="white" />
    </g>
    <defs>
        <filter id="filter0_bd_24206_156837" x="0" y="0" width="168.024" height="80" filterUnits="userSpaceOnUse"
            color-interpolation-filters="sRGB">
            <feFlood flood-opacity="0" result="BackgroundImageFix" />
            <feGaussianBlur in="BackgroundImageFix" stdDeviation="8" />
            <feComposite in2="SourceAlpha" operator="in" result="effect1_backgroundBlur_24206_156837" />
            <feColorMatrix in="SourceAlpha" type="matrix" values="0 0 0 0 0 0 0 0 0 0 0 0 0 0 0 0 0 0 127 0"
                result="hardAlpha" />
            <feOffset />
            <feGaussianBlur stdDeviation="10" />
            <feComposite in2="hardAlpha" operator="out" />
            <feColorMatrix type="matrix" values="0 0 0 0 0 0 0 0 0 0 0 0 0 0 0 0 0 0 0.05 0" />
            <feBlend mode="normal" in2="effect1_backgroundBlur_24206_156837" result="effect2_dropShadow_24206_156837" />
            <feBlend mode="normal" in="SourceGraphic" in2="effect2_dropShadow_24206_156837" result="shape" />
        </filter>
    </defs>
</svg>
